X:1
T:311 - ConfianÃ§a
T:Letra: Henry Maxwell Wright (1849-1931)
T:MÃºsica: Elisha Albright Hoffmann (1839-1929)
M:4/4
L:1/8
Q:1/4=100
K:Emaj
V:1
BB | "E"B4- BG yFyyE | "F#m"F4 C2 FyG | "B7"A4- AyA yGyF | "E"G6 B,B, | "A"C4- CE DC | "E"B,4 E2 EG | "B"F4- FEy "B7"GyF | "E"E2- "A"E2- "E"E2 |]
w:1.~So-brea cruz,_ por meus pe-ca-dos, Quis Je-sus_ por mim mor-rer. Em Je-sus_ re-fu-gi-a-do, Na-da te_nho que te-mer.__
W:
W:
W:
W:Sobre a cruz, por meus pecados,
W:Quis Jesus por mim morrer.
W:Em Jesus refugiado,
W:Nada tenho que temer.
W:
W:
W:

